X: 989
T: Hayli Demdir
C: Suphi Ziya Özbekkan
O: Turkey
F: http://compmusic.upf.edu/node/140
N: beyati--sarki--duyek--hayli_demdir--suphi_ziya_ozbekkan
N: makam= beyati
N: form= sarki
N: usul= duyek = 8/4
M: 8/4
L: 1/16
K: C _2/4B   
Q: 1/4=96
%%MIDI tuningsystem comma53
z2 c4 d2 d8  | e4 f4 f2 e4 ed  | z2 de d2 e2 c2 d2 c2 =B2  | \
w:   |   |   | 
c2 de (3fed c=B A8  | 
w:   | 
z2 A4 f2 f3e f4  | z2 ef e2 fg fe de d4  | \
w:   |   | 
da g^f _ed c=B c8  | 
w:   | 
z2 _e4 ed (3edc (3c=Bc dc d/f/e/d/  | \
w:   | 
cd3 d4 dd cc =Bc cB  | 
w:   | 
=B2 z2 e2 d2 dc c3B B3A A8 A2 Bc BA  | \
w:   | 
G2 z2 A=B A2 B2 c2 BA Bc  | 
w:   | 
de dc3 c8 (3cc=B  | (3=B^AB z2 G=A G2 A2 A8 a8 ag g2 gf  | 
w:   |   | 
f2 f2 e4 ed ed cd c2  | (3=BAB z2 fe d2 cB Af ed d2  | 
w:   |   | 
c=B A/B/A A6 A8 z2 g6 a2 a8 a=b ab2c'3 e'd' c'b  | \
w:   | 
ag ^fg6z4z2a2=b2c'2z ba ga2b2c'8c'6(3babz2e'  | 
w:   | 
e'd'2c' =bb aa4a gz c'b  | c'd'4d' f'e' d'd'4z2a2=b2c'2c' bb c'c' bb aa6a _ba gg ^fg4z2g4g2a ag gf a4 ag  | 
w:   |   | 
fe ed c=B cd e^f gf g/=b/a/g/ g8 z2 fg _a2 gf =f2  | 
w:   | 
_ef g^f ed d8 z2  | ef e2 fg f8 z2  | \
w:   |   | 
e2 f2 gf f8 z2  | 
w:   | 
ef e2 f2 ga gf fe d2 z2  | f2 e2 fg e2 d2 dc d/f/_e/d/ cd3 d8 (3ddc c=B (3ccB  | 
w:   |   | 
=B2 z2 e2 d2 dc c3B B3A A8 A2 Bc BA  | \
w:   | 
G2 z2 A=B A2 B2 c2 BA Bc  | 
w:   | 
de dc3 c8 (3cc=B  | (3=B^AB z2 G=A G2 A2 A8 a8 ag g2 gf  | 
w:   |   | 
f2 f2 e4 ed ed cd c2  | (3=BAB z2 fe d2 cB Af ed d2  | 
w:   |   | 
c=B A/B/A A6 A8 |
w:   | 


